build/img/svg/aa.svg

<svg width="32" height="16" viewBox="0 0 32 16" fill="none" xmlns="http://www.w3.org/2000/svg">
<g opacity="0.3">
<path d="M4.32374 12.1358L2.88249 15.624H0L6.64574 0H10.7093L17.395 15.624H14.4725L13.0112 12.1358H4.32374ZM5.30458 9.73368H12.0304L8.66749 1.79634L5.30458 9.73368Z" fill="#132C39"/>
<path d="M31.6997 13.4935C31.7798 13.4935 31.8799 13.4726 32 13.4308V15.7493C31.7598 15.8329 31.4862 15.8747 31.1793 15.8747C29.9115 15.8747 28.9574 15.3037 28.3168 14.1619C27.9565 14.6632 27.4361 15.0949 26.7555 15.4569C26.0882 15.819 25.3342 16 24.4935 16C22.9322 16 21.6777 15.6031 20.7303 14.8094C19.7961 14.0017 19.329 12.9156 19.329 11.5509C19.329 10.3255 19.8295 9.302 20.8303 8.48042C21.8312 7.64491 22.9589 7.22715 24.2133 7.22715C24.9472 7.22715 25.7212 7.39426 26.5353 7.72846C27.3493 8.04874 27.8097 8.20888 27.9165 8.20888V7.28982C27.9165 6.51001 27.6029 5.91123 26.9757 5.49347C26.3618 5.07572 25.5678 4.86684 24.5936 4.86684C22.8454 4.86684 21.3508 5.33333 20.1097 6.26632V3.7389C21.2974 2.94517 22.752 2.5483 24.4735 2.5483C26.2484 2.5483 27.6896 2.97998 28.7972 3.84334C29.9182 4.69278 30.4787 5.75805 30.4787 7.03916V12.47C30.4787 13.1523 30.8857 13.4935 31.6997 13.4935ZM27.9165 11.1958V10.3185C27.743 10.3185 27.2426 10.1654 26.4152 9.85901C25.6011 9.55266 24.9005 9.39948 24.3134 9.39948C23.6461 9.39948 23.0923 9.60139 22.6519 10.0052C22.2115 10.3951 21.9914 10.9104 21.9914 11.5509C21.9914 12.2611 22.2316 12.8111 22.712 13.201C23.1924 13.577 23.873 13.765 24.7537 13.765C25.6478 13.765 26.3952 13.5352 26.9957 13.0757C27.6095 12.6162 27.9165 11.9896 27.9165 11.1958Z" fill="#132C39"/>
</g>
</svg>

<svg width="32" height="16" viewBox="0 0 32 16" fill="none" xmlns="http://www.w3.org/2000/svg"><path d="M4.324 12.136l-1.442 3.488H0L6.646 0h4.063l6.686 15.624h-2.922l-1.462-3.488H4.324zm.98-2.402h6.726L8.667 1.796 5.305 9.734zM31.7 13.493c.08 0 .18-.02.3-.062v2.318a2.49 2.49 0 01-.82.126c-1.268 0-2.223-.571-2.863-1.713-.36.501-.88.933-1.561 1.295-.668.362-1.422.543-2.262.543-1.562 0-2.816-.397-3.764-1.19-.934-.808-1.401-1.894-1.401-3.26 0-1.225.5-2.248 1.501-3.07 1.001-.835 2.129-1.253 3.383-1.253.734 0 1.508.167 2.322.501.814.32 1.275.48 1.381.48V7.29c0-.78-.313-1.379-.94-1.797-.614-.417-1.408-.626-2.382-.626-1.749 0-3.243.466-4.484 1.4V3.738c1.187-.794 2.642-1.19 4.364-1.19 1.774 0 3.216.431 4.323 1.294 1.121.85 1.682 1.915 1.682 3.196v5.431c0 .682.407 1.023 1.22 1.023zm-3.784-2.297v-.877c-.173 0-.673-.154-1.5-.46-.815-.306-1.515-.46-2.103-.46-.667 0-1.22.202-1.661.606-.44.39-.66.905-.66 1.546 0 .71.24 1.26.72 1.65.48.376 1.161.564 2.042.564.894 0 1.641-.23 2.242-.69.614-.459.92-1.085.92-1.88z" opacity=".3" fill="#132C39"/></svg>
